!!!COM: Mozart, Wolfgang Amadeus
!!!OR: Quartet in F Major
!!!OTL: Allegro
!!!OMV: 1
!!!SCT: K 158
!!!SCA: Chronologisch-thematisches Verzeichnis sämtlicher Tonwerke Wolfgang Amade Mozarts (L. von Köchel; 1862, 2/1905, 3/1937, 1947)
!!!YOR: Breitkopf & Härtel Edition
!!!EED: Edmund Correia, Jr.
!!!ENC: Edmund Correia, Jr.
!!!CDT: 1756/1/27/-1791/12/5/
!!!OCY: Österreich
!!!YEC: Copyright (c) 1994, 2000 Center for Computer Assisted Research in the Humanities
!!!YEM: Rights to all derivative editions reserved.
!!!YEM: Refer to licensing agreement for further details.
!!!YEN: United States of America
**kern	**kern	**kern	**kern
*I:Violino 1	*I:Violino 2	*I:Viola	*I:Violoncello
*>[A,A,B,B]	*>[A,A,B,B]	*>[A,A,B,B]	*>[A,A,B,B]
*>A	*>A	*>A	*>A
*clefG2	*clefG2	*clefC3	*clefF4
*k[b-]	*k[b-]	*k[b-]	*k[b-]
*F:	*F:	*F:	*F:
*M3/4	*M3/4	*M3/4	*M3/4
! Presto	! Presto	! Allegro	! Allegro
*tb32	*tb32	*tb32	*tb32
=0-	=0-	=0-	=0-
16ff	16r	16r	16r
(12aa	4r	4r	4r
12ff	.	.	.
12cc)	.	.	.
32ryy	32ryy	32ryy	32ryy
32ryy	32ryy	32ryy	32ryy
32ryy	32ryy	32ryy	32ryy
32ryy	32ryy	32ryy	32ryy
32ryy	32ryy	32ryy	32ryy
32ryy	32ryy	32ryy	32ryy
32ryy	32ryy	32ryy	32ryy
32ryy	32ryy	32ryy	32ryy
32ryy	32ryy	32ryy	32ryy
32ryy	32ryy	32ryy	32ryy
32ryy	32ryy	32ryy	32ryy
32ryy	32ryy	32ryy	32ryy
32ryy	32ryy	32ryy	32ryy
32ryy	32ryy	32ryy	32ryy
=1	=1	=1	=1
4a	4r	4r	4r
4r	4r	4r	4r
4cc	4a	4d	4F#
=2	=2	=2	=2
4b-	4g	4d	4G
8r	4r	4r	4r
16r	.	.	.
16ee	.	.	.
(12gg	4r	4r	4r
12ee	.	.	.
12b-)	.	.	.
=3	=3	=3	=3
4g	4r	4r	4r
4r	4r	4r	4r
4b-	4g	4c	4E
=4	=4	=4	=4
4a	4f	4c	4Fn
8r	4r	4r	4r
16r	.	.	.
16a	.	.	.
(12cc	4r	4r	4r
12a	.	.	.
12f)	.	.	.
=5	=5	=5	=5
[2.ff	4r	4r	4r
.	8r	4c	4F
.	16r	.	.
.	16a	.	.
.	(12cc	4A	4F
.	12a	.	.
.	12f)	.	.
=6	=6	=6	=6
2.ff]	4ee-	4r	4r
.	8r	4c	4A
.	16r	.	.
.	16cc	.	.
.	(12ee-	4f	4A
.	12cc	.	.
.	12f)	.	.
=7	=7	=7	=7
[2.ff	4dd	4r	4r
.	8r	4d	4B-
.	16r	.	.
.	16f	.	.
.	(12dd	4B-	4B-
.	12b-	.	.
.	12f)	.	.
=8	=8	=8	=8
4ff]	4d	4r	4r
8r	4r	4d	4BB-
16r	.	.	.
16ff	.	.	.
(12dd	4r	4B-	4BB-
12b-	.	.	.
12g)	.	.	.
=9	=9	=9	=9
(2f	4r	4r	4r
.	(4c	(4A	4C
! 16aP/	!	!	!
4g	4B-)	4E)	4C
=10	=10	=10	=10
4f	4A	4F	4F
4r	8r	8r	8r
.	16r	16r	16r
.	16f	16f	16F
4r	(12a	(12a	(12A
.	12f	12f	12F
.	12d)	12d)	12D)
=11	=11	=11	=11
2.r	4Bn	4Bn	4BBn
.	4r	4r	4r
.	4r	4r	4r
=12	=12	=12	=12
[2.ggxx	(8cxx	4r	4Cxx
.	8e	.	.
.	8g	4Gxx	4r
.	8e	.	.
.	8g	4G	4r
.	8e)	.	.
=13	=13	=13	=13
4gg]	(8c	4r	4C
.	8e	.	.
! 16ffP/	!	!	!
4ee	8g	4G	4r
.	8e	.	.
! 16ddP/	!	!	!
4cc	8g	4G	4r
.	8e)	.	.
=14	=14	=14	=14
(2.cc	(8G	4r	4D
.	8f	.	.
.	8g	4G	4r
.	8f	.	.
.	8g	4G	4r
.	8f)	.	.
=15	=15	=15	=15
4bn)	(8G	4r	4D
.	8f	.	.
4r	8g	4G	4r
.	8f	.	.
4r	8g	4G	4r
.	8f)	.	.
=16	=16	=16	=16
[2.ff	(8Bn	4r	4GG
.	8d	.	.
.	8g	4G	4r
.	8d	.	.
.	8g	4G	4r
.	8d)	.	.
=17	=17	=17	=17
4ff]	(8G	4r	4GG
.	8d	.	.
! 16eeP/	!	!	!
4dd	8f	4G	4r
.	8d	.	.
! 16ccP/	!	!	!
4bn	8f	4G	4r
.	8d)	.	.
=18	=18	=18	=18
(2.dd	(8Bn	4r	4C
.	8d	.	.
.	8g	4Bn	4r
.	8f	.	.
.	8g	4B	4r
.	8f)	.	.
=19	=19	=19	=19
4cc)	(8e	4r	4C
.	8g	.	.
4r	8cc	4c	4r
.	8g	.	.
4r	8e	4C	4r
.	8c)	.	.
=20	=20	=20	=20
(8.aat	(8c	4r	4F
.	8f	.	.
32gg	.	.	.
32aa)	.	.	.
4r	8a	(8f	4r
.	8f)	8c)	.
4r	(8cc	(8a	4r
.	8a)	8f)	.
=21	=21	=21	=21
(8.ggT	(8c	4r	4E
.	8e	.	.
32ff	.	.	.
32gg)	.	.	.
4r	8g	(8e	4r
.	8e)	8c)	.
4r	(8cc	(8g	4r
.	8g)	8e)	.
=22	=22	=22	=22
([2dd	(8f	(4d	2.BBn
.	8g)	.	.
.	(8d	4Bn)	.
.	8g)	.	.
!	!	! 16gP/	!
8dd]	(8G	(8f	.
16ee	8g)	16e	.
16ff)	.	16d)	.
=23	=23	=23	=23
4ee	(8G	4c	4C
.	8c	.	.
4r	8e	4r	4r
.	8c	.	.
4r	8g	4r	4r
.	8e)	.	.
=24	=24	=24	=24
(8.aat	(8c	4r	4F
.	8f)	.	.
32gg	.	.	.
32aa)	.	.	.
4r	(8a	(8f	4r
.	8cc)	8a)	.
4r	(8c	(8f	4r
.	8cc)	8a)	.
=25	=25	=25	=25
(8.ggT	(8c	4r	4E
.	8e)	.	.
32ff	.	.	.
32gg)	.	.	.
4r	(8g	(8e	4r
.	8e)	8c)	.
4r	(8cc	(8g	4r
.	8g)	8e)	.
=26	=26	=26	=26
([2dd	(8f	(4d	(2.BBn
.	8g)	.	.
.	(8d	4Bn)	.
.	8g)	.	.
!	!	! 16gP/	!
8dd]	(8G	(8f	.
16ee	8g)	16e	.
16ff)	.	16d)	.
=27	=27	=27	=27
4ee	(8c	4c	4C)
.	8e	.	.
4r	8g	4r	4r
.	8e	.	.
4r	8cc	4r	4r
.	8g)	.	.
=28	=28	=28	=28
(8cc#	4a	4f	4F
8dd	.	.	.
8ee	4r	4r	4r
8dd	.	.	.
8gg	4r	4r	4r
8ff)	.	.	.
=29	=29	=29	=29
(4aa	4r	4r	4r
4a	(4f	4A	(4D
4dd)	8a	4f	4F)
.	8f)	.	.
=30	=30	=30	=30
(2.ccn	(2.e	[2.g	4G
.	.	.	4G
.	.	.	4G
=31	=31	=31	=31
4bn)	4d)	4g]	4GG
4r	4r	8r	8r
.	.	16r	16r
.	.	16gxx	16Gxx
4r	4r	(12a	(12A
.	.	12f#	12F#
.	.	12g)	12G)
=32	=32	=32	=32
4r	4r	4G	4GG
4gg'	4e'	4r	4r
4gg'	4e'	4r	4r
=33	=33	=33	=33
(4ee	(4c#	4r	4r
4ff)	4d)	8r	8r
.	.	16r	16r
.	.	16g	16G
4r	4r	(12a	(12A
.	.	12f#	12F#
.	.	12g)	12G)
=34	=34	=34	=34
4r	4r	4G	4GG
4ff'	4d'	4r	4r
4ff'	4d'	4r	4r
=35	=35	=35	=35
(4dd	(4Bn	2.r	2.r
8ee)	4cn)	.	.
16r	.	.	.
16ee	.	.	.
(12gg	4r	.	.
12ee	.	.	.
12cc)	.	.	.
=36	=36	=36	=36
2bb-	4r	4r	4r
.	4c	4G	4E
4B-	4c	4G	4E
=37	=37	=37	=37
4A	4c	4F	4F
8r	4r	4r	4r
16r	.	.	.
16ff	.	.	.
(12aa	4r	4r	4r
12ff	.	.	.
12dd)	.	.	.
=38	=38	=38	=38
(4ccc	2.r	2.r	2.r
4gg#	.	.	.
4aa	.	.	.
=39	=39	=39	=39
4ee	2.r	2.r	2.r
4ff	.	.	.
4dd)	.	.	.
=40	=40	=40	=40
(2cc	4r	(2e	4r
.	(4g	.	4G
! 16eeP/	!	! 16gP/	!
4dd	4Bn)	4f	4GG
=41	=41	=41	=41
8cc	4c	4e	4C
8r	.	.	.
8gg	8r	8r	4r
8r	16r	16r	.
.	16cc	16e	.
8gg	(12ee	(12g	4r
.	12dd	12f	.
8r	.	.	.
.	12cc)	12e)	.
=42	=42	=42	=42
8gg	4bn	4d	4G
8r	.	.	.
8gg	8r	8r	4r
8r	16r	16r	.
.	16dd	16bn	.
8gg	(12ff	(12dd	4r
.	12ee	12cc	.
8r	.	.	.
.	12dd)	12b)	.
=43	=43	=43	=43
4gg	4ee	8cc	4c
.	.	8r	.
8r	8r	8g	4r
16r	16r	8r	.
16e	16c	.	.
(12g	(12e	8g	4r
12f	12d	.	.
.	.	8r	.
12e)	12c)	.	.
=44	=44	=44	=44
4d	4Bn	8g	4G
.	.	8r	.
8r	8r	8g	4r
16r	16r	8r	.
16d	16B	.	.
(12f	(12d	8g	4r
12e	12c	.	.
.	.	8r	.
12d)	12B)	.	.
=45	=45	=45	=45
4c	4c	4e 4G	4C
8r	8r	8r	8r
16r	16r	16r	16r
16r	16r	16r	16r
4r	4r	4r	4r
=46	=46	=46	=46
8c'	8c'	8c'	8C'
8r	8r	8r	8r
8e'	8e'	8e'	8E'
8r	8r	8r	8r
8g'	8g'	8g'	8G'
8r	8r	8r	8r
=47	=47	=47	=47
8a-'xx	8a-'xx	8a-'	8A-'
8r	8r	8r	8r
8f'xx	8f'xx	8f'	8F'
8r	8r	8r	8r
4r	4r	4r	4r
=48	=48	=48	=48
8cc'	8cc'	8cc'	8c'
8r	8r	8r	8r
8a-'	8a-'	8a-'	8A-'
8r	8r	8r	8r
8f'	8f'	8f'	8F'
8r	8r	8r	8r
=49	=49	=49	=49
8e'xx	8e'xx	8e'	8E'
8r	8r	8r	8r
8g'xx	8g'xx	8g'	8G'
8r	8r	8r	8r
4r	4r	4r	4r
=50	=50	=50	=50
8c'	8c'	8c'	8C'
8r	8r	8r	8r
8e'	8e'	8e'	8E'
8r	8r	8r	8r
8g'	8g'	8g'	8G'
8r	8r	8r	8r
=51	=51	=51	=51
8a-'	8a-'	8a-'	8A-'
8r	8r	8r	8r
8e'	8e'	8e'	8E'
8r	8r	8r	8r
8f'	8f'	8f'	8F'
8r	8r	8r	8r
=52	=52	=52	=52
8d-'xx	8d-'xx	8d-'xx	8D-'xx
8r	8r	8r	8r
8c'xx	8c'xx	8c'xx	8C'xx
8r	8r	8r	8r
8Bn'xx	8Bn'xx	8Bn'xx	8BBn'xx
8r	8r	8r	8r
=53	=53	=53	=53
4c	4c	4c	4C
4r	8r	4r	4C
.	16r	.	.
.	16c	.	.
4r	(12g	4r	4C
.	12e	.	.
.	12c)	.	.
=54	=54	=54	=54
4r	[2.cc	2.g	4E
8r	.	.	4E
16r	.	.	.
16cc	.	.	.
(12gg	.	.	4E
12ff	.	.	.
12ee)	.	.	.
=55	=55	=55	=55
[2.dd	4cc]	4a	4F#
.	8r	4f#	4D
.	16r	.	.
.	16a	.	.
.	(12cc	4d	4F#
.	12b-	.	.
.	12a)	.	.
=56	=56	=56	=56
4dd]	[2.b-	[2.g	4G
8r	.	.	4G
16r	.	.	.
16dd	.	.	.
(12ff	.	.	4Fn
12ee	.	.	.
12dd)	.	.	.
=57	=57	=57	=57
[2.cc	4b-]	4g]	4E
.	8r	4e	4C
.	16r	.	.
.	16g	.	.
.	(12b-	4c	4E
.	12a	.	.
.	12g)	.	.
=58	=58	=58	=58
4cc]	[2.a	[2.fn	4F
8r	.	.	4F
16r	.	.	.
16cc	.	.	.
(12aa	.	.	4E
12ff	.	.	.
12cc)	.	.	.
=59	=59	=59	=59
[2.b-	4a]	4f]	4D
.	8r	4d	4BB-
.	16r	.	.
.	16f	.	.
.	(12a	4B-	4D
.	12g	.	.
.	12f)	.	.
=60	=60	=60	=60
4b-]	[2.g	[2.e	4E
8r	.	.	4E
16r	.	.	.
16b-	.	.	.
(12gg	.	.	4D
12ee	.	.	.
12b-)	.	.	.
=61	=61	=61	=61
4a	4g]	4e]	4C#
4r	4r	8r	8r
.	.	16r	16r
.	.	16a'	16A'
4r	4r	(12b-	(12B-
.	.	12g#	12G#
.	.	12a)	12A)
=62	=62	=62	=62
4r	4r	4A	4AA
4aa'	4f'	4r	4r
4aa'	4f'	4r	4r
=63	=63	=63	=63
(4ff#	(4d#	4r	4r
4gg)	4e)	8r	8r
.	.	16r	16r
.	.	16a'	16A'
4r	4r	(12b-	(12B-
.	.	12g#	12G#
.	.	12a)	12A)
=64	=64	=64	=64
4r	4r	4A	4AA
4gg'	4e'	4r	4r
4gg'	4e'	4r	4r
=65	=65	=65	=65
(4ee	(4c#	4r	4r
4ffn)	4dn)	8r	8r
.	.	16r	16r
.	.	16d'xx	16D'xx
4r	4r	(12e	(12E
.	.	12c#	12C#
.	.	12d)	12D)
=66	=66	=66	=66
4r	4r	4D	4DD
4ff'	4d'	4r	4r
4ff'	4d'	4r	4r
=67	=67	=67	=67
(4dd	(4Bn	4r	4r
4ee-)	4cn)	8r	8r
.	.	16r	16r
.	.	16f'xx	16F'xx
4r	4r	(12gn	(12Gn
.	.	12e	12E
.	.	12f)	12F)
=68	=68	=68	=68
4r	4r	4F	4FF
4ee-'	4c'	4r	4r
4ee-'	4c'	4r	4r
=69	=69	=69	=69
(4cc#	(4A	2.r	2.r
8dd)	4B-)	.	.
16r	.	.	.
16d	.	.	.
(12b-	4r	.	.
12a	.	.	.
12g)	.	.	.
=70	=70	=70	=70
[2.dd	4r	4r	4r
.	8r	8r	4B-xx
.	16r	16r	.
.	16g	16dxx	.
.	(12cc	4f#	4A
.	12dd	.	.
.	12cc)	.	.
=71	=71	=71	=71
(2dd]	(2b-	4g	4G
.	.	4d	4r
4bb-	4dd	4r	4r
=72	=72	=72	=72
4aa	4cc	4r	4r
4gg	4b-	4d	(4BB-
4ff)	4a)	4d	4BBn)
=73	=73	=73	=73
(8ff	(8a	4c	4C
8ee)	8g)	.	.
(8gg	(8e	4c	4C
8ee)	8g)	.	.
(8ff	(8a	4c	4C
8dd)	8f)	.	.
=74	=74	=74	=74
4cc	4e	4G	4C
8r	4r	4r	4r
16r	.	.	.
16ff	.	.	.
(12aa	4r	4r	4r
12ff	.	.	.
12cc)	.	.	.
=75	=75	=75	=75
4a	4r	4r	4r
4r	4r	4r	4r
4cc	4a	4d	4F#
=76	=76	=76	=76
4b-	4g	4d	4G
8r	4r	4r	4r
16r	.	.	.
16ee	.	.	.
(12gg	4r	4r	4r
12ee	.	.	.
12b-)	.	.	.
=77	=77	=77	=77
4g	4r	4r	4r
4r	4r	4r	4r
4b-	4g	4c	4E
=78	=78	=78	=78
4a	4f	4c	4F
8r	4r	4r	4r
16r	.	.	.
16a	.	.	.
(12cc	4r	4r	4r
12a	.	.	.
12f)	.	.	.
=79	=79	=79	=79
[2.ff	4r	4r	4r
.	8r	4c	4F
.	16r	.	.
.	16a	.	.
.	(12cc	4A	4F
.	12a	.	.
.	12f)	.	.
=80	=80	=80	=80
2.ff_	4ee-	4r	4r
.	8r	4c	4A
.	16r	.	.
.	16cc	.	.
.	(12ee-	4f	4A
.	12cc	.	.
.	12f)	.	.
=81	=81	=81	=81
2.ff_	4dd	4r	4r
.	8r	4d	4B-
.	16r	.	.
.	16b-	.	.
.	(12dd	4B-	4B-
.	12b-	.	.
.	12f)	.	.
=82	=82	=82	=82
4ff]	4d	4r	4r
8r	4r	4d	4BB-
16r	.	.	.
16ff	.	.	.
(12dd	4r	4B-	4BB-
12b-	.	.	.
12g)	.	.	.
=83	=83	=83	=83
(2f	4r	4r	4r
.	(4c	(4A	4C
! 16aP/	!	!	!
4g	4B-)	4E)	4C
=84	=84	=84	=84
4f	4A	4F	4FF
4r	8r	8r	8r
.	16r	16r	16r
.	16f	16f	16F
4r	(12e-	(12e-	(12E-
.	12f	12f	12F
.	12g)	12g)	12G)
=85	=85	=85	=85
2.r	4A	4A	4AA
.	4r	4r	4r
.	4r	4r	4r
=86	=86	=86	=86
[2.ffxx	(8B-xx	4r	4BB-xx
.	8d	.	.
.	8f	4Fxx	4r
.	8d	.	.
.	8f	4F	4r
.	8d)	.	.
=87	=87	=87	=87
4ff]	(8B-	4r	4BB-
.	8d	.	.
! 16ee-P/	!	!	!
4dd	8f	4F	4r
.	8d	.	.
! 16ccP/	!	!	!
4b-	8f	4F	4r
.	8d)	.	.
=88	=88	=88	=88
(2.b-	(8e-	4r	4C
.	8f	.	.
.	8e-	4F	4r
.	8f	.	.
.	8e-	4F	4r
.	8d)	.	.
=89	=89	=89	=89
4a)	(8c	4r	4C
.	8d	.	.
4r	8e-	4F	4r
.	8d	.	.
4r	8c	4F	4r
.	8B-)	.	.
=90	=90	=90	=90
[2.ee-	(8A	4r	4FF
.	8c	.	.
.	8f	4F	4r
.	8c	.	.
.	8f	4F	4r
.	8c)	.	.
=91	=91	=91	=91
4ee-]	(8A	4r	4FF
.	8c	.	.
! 16ddP/	!	!	!
4cc	8f	4F	4r
.	8c	.	.
! 16b-P/	!	!	!
4a	8f	4F	4r
.	8e-)	.	.
=92	=92	=92	=92
(2.cc	(8A	4r	4BB-
.	8c	.	.
.	8f	4A	4r
.	8e-	.	.
.	8f	4A	4r
.	8e-)	.	.
=93	=93	=93	=93
4b-)	(8d	4r	4BB-
.	8f)	.	.
4r	(8b-	4B-	4r
.	8f)	.	.
4r	(8d	4B-	4r
.	8B-)	.	.
=94	=94	=94	=94
(8.ggT	(8e-	4r	4BB-
.	8g	.	.
32ff	.	.	.
32gg)	.	.	.
4r	8b-	(8g	4r
.	8g	8e-)	.
4r	8f	(8d	4r
.	8e-)	8e-)	.
=95	=95	=95	=95
(8.ffT	(8d	4r	4BB-
.	8f	.	.
32een	.	.	.
32ff)	.	.	.
4r	8b-	(8f	4r
.	8f	8d)	.
4r	8d	(8B-	4r
.	8B-)	8F)	.
=96	=96	=96	=96
([2cc	(8A	(4e-	(2.FF
.	8c	.	.
.	8f	4c	.
.	8c	.	.
8cc]	8A	4F)	.
16dd	8c)	.	.
16ee-)	.	.	.
=97	=97	=97	=97
4dd	(8B-	(8F	4BB-)
.	8d	8B-)	.
4r	8f	(8d	4r
.	8d	8B-	.
4r	8b-	8f	4r
.	8f)	8d)	.
=98	=98	=98	=98
(8.ddT	(8d	4r	4B-
.	8f)	.	.
32cc	.	.	.
32dd)	.	.	.
4r	(8b-	(8f	4r
.	8f)	8d)	.
4r	(8d	(8B-	4r
.	8B-)	8F)	.
=99	=99	=99	=99
(8.ccT	(8A	4r	4F
.	8c	.	.
32b-	.	.	.
32cc)	.	.	.
4r	8f	(8A	4r
.	8c)	8F)	.
4r	(8a	(8c	4r
.	8f)	8A)	.
=100	=100	=100	=100
([2g	(8en	(4B-	(2.C
.	8c	.	.
.	8e	4G	.
.	8c	.	.
8g]	8e	4c)	.
16a	8g)	.	.
16b-)	.	.	.
=101	=101	=101	=101
4a	(8f	4c	4F)
.	8g	.	.
4r	8a	4r	4r
.	8g	.	.
4r	8f	4r	4r
.	8e)	.	.
=102	=102	=102	=102
(8f#	4d	4B-	4BB-
8g	.	.	.
8a	4r	4r	4r
8g	.	.	.
8cc	4r	4r	4r
8b-)	.	.	.
=103	=103	=103	=103
(4dd	4r	4r	4r
4d	(4G	(4G	(4BB-
4g)	4B-)	4D)	4GG)
=104	=104	=104	=104
(2.fn	(2.A	4C	4C
.	.	4C	4C
.	.	4C	4C
=105	=105	=105	=105
4e)	4G)	4C	4C
4r	4r	8r	8r
.	.	16r	16r
.	.	16cc'xx	16c'xx
4r	4r	(12dd	(12d
.	.	12bn	12Bn
.	.	12cc)	12c)
=106	=106	=106	=106
4r	4r	4c	4C
4ccc'	4a'	4r	4r
4ccc'	4a'	4r	4r
=107	=107	=107	=107
(4aa	(4f#	4r	4r
4bb-)	4g)	8r	8r
.	.	16r	16r
.	.	16c'xx	16C'xx
4r	4r	(12d	(12D
.	.	12Bn	12BBn
.	.	12c)	12C)
=108	=108	=108	=108
4r	4r	4C	4CC
4bb-'	4g'	4r	4r
4bb-'	4g'	4r	4r
=109	=109	=109	=109
(4gg	(4e	2.r	2.r
8aa)	4fn)	.	.
16r	.	.	.
16aa'	.	.	.
(12ccc	4r	.	.
12aa	.	.	.
12ff)	.	.	.
=110	=110	=110	=110
2eee-	4r	4r	4r
.	4cc	4f	4AA
4ee-	4cc	4f	4AA
=111	=111	=111	=111
4dd	4b-	4f	4BB-
8r	4r	4r	4r
16r	.	.	.
16dd	.	.	.
(12bb-	4r	4r	4r
12gg	.	.	.
12dd)	.	.	.
=112	=112	=112	=112
(4ddd	2.r	2.r	2.r
4aa	.	.	.
4bb-)	.	.	.
=113	=113	=113	=113
(8ff#	2.r	2.r	2.r
8gg)	.	.	.
(8aa	.	.	.
8gg	.	.	.
8bb-	.	.	.
8gg)	.	.	.
=114	=114	=114	=114
(2ffn	4r	4r	4r
.	(4a	(4c	4c
! 16aaP/	!	!	!
4gg	4e)	4B-)	4C
=115	=115	=115	=115
8ff	4f	4A	4F
8r	.	.	.
8cc	8r	8r	4r
8r	16r	16r	.
.	16f	16A	.
8cc	(12a	(12c	4r
.	12g	12B-	.
8r	.	.	.
.	12f)	12A)	.
=116	=116	=116	=116
8cc	4e	4G	4C
8r	.	.	.
8cc	8r	8r	4r
8r	16r	16r	.
.	16g	16e	.
8cc	(12b-	(12g	4r
.	12a	12f	.
8r	.	.	.
.	12g)	12e)	.
=117	=117	=117	=117
4cc	4a	8f	4F
.	.	8r	.
8r	8r	8c	4r
16r	16r	8r	.
16a	16f	.	.
(12cc	(12a	8c	4r
12b-	12g	.	.
.	.	8r	.
12a)	12f)	.	.
=118	=118	=118	=118
4g	4e	8c	4C
.	.	8r	.
8r	8r	8c	4r
16r	16r	8r	.
16g	16e	.	.
(12b-	(12g	8c	4r
12a	12f	.	.
.	.	8r	.
12g)	12e)	.	.
=119	=119	=119	=119
4f	4f 4A	4c	4F
8r	4r	4r	4r
16r	.	.	.
16ff	.	.	.
(12aa	4r	4r	4r
12ff	.	.	.
12cc)	.	.	.
=120	=120	=120	=120
4a	4r	4r	4r
4r	4r	4r	4r
4cc	4a	4f#	4D
=121	=121	=121	=121
4b-	4g	4d	4G
8r	4r	4r	4r
16r	.	.	.
16ee	.	.	.
(12gg	4r	4r	4r
12ee	.	.	.
12cc)	.	.	.
=122	=122	=122	=122
4g	4r	4r	4r
4r	4r	4r	4r
4b-	4g	4e	4C
=123	=123	=123	=123
4a	4f	4c	4F
4r	4r	4r	4r
(4a	(4A	(4F#	(4FF#
=124	=124	=124	=124
4b-)	4B-)	4G)	4GG)
4r	4r	4r	4r
(4cc	(4c	(4A	(4AA
=125	=125	=125	=125
4dd)	4d)	4B-)	4BB-)
8r	4r	4r	4r
16r	.	.	.
16cc#	.	.	.
(12dd	4r	4r	4r
12b-	.	.	.
12g)	.	.	.
=126	=126	=126	=126
(2f	4r	4r	4r
.	(4c	(4A	4C
! 16aP/	!	!	!
4g	4B-)	4E)	4C
=127	=127	=127	=127
4f	4A	4Fn	4FFn
8r	8r	8r	8r
16r	16r	16r	16r
==:|!	==:|!	==:|!	==:|!
*-	*-	*-	*-
!!!RWG: Appoggiaturas of spine 'Violino 1' need manual editing in measures: 9, 13, 13, 17, 17, 40, 83, 87, 87, 91, 91, 114, 126
!!!RWG: Appoggiaturas of spine 'Viola' need manual editing in measures: 22, 26, 40
!!!RWG: Key is interpreted using the Humdrum key tool.
!!!AFT: stage2
!!!END: 1994/03/26
!!format changes:
!!content changes:
!!public access: complete
!!!KEY: 4076231775
!!!EMD: Converted from MuseData to Humdrum Dec 16, 2000, by Andreas Kornstaedt using muse2kern.
